src/pages/Main/ui/Program/ScheduleItem/images/network.svg

<svg fill="none" height="26" viewBox="0 0 25 26" width="25" xmlns="http://www.w3.org/2000/svg"><path d="m22.8974 11.8243c-.9553 0-1.7603.6466-2.0173 1.5315l-3.5589-.3476c0-.0312.0025-.0632.0025-.0944 0-1.8019-.8281-3.40615-2.1171-4.44618l2.7147-4.34475c.2382.09534.4968.14907.7692.14907 1.1618 0 2.1034-.95596 2.1034-2.13554 0-1.179568-.9424-2.1364-2.1043-2.1364s-2.1035.955965-2.1035 2.13554c0 .63009.2707 1.1943.6975 1.58518l-2.6942 4.31268c-.8358-.50528-1.8124-.79649-2.8564-.79649-1.93703 0-3.64353 1.00016-4.64661 2.51861l-3.00324-1.76112c.07939-.22534.12549-.46715.12549-.72022 0-1.17958-.94161-2.13554-2.10347-2.13554-1.161854 0-2.10517.95596-2.10517 2.13554 0 1.17957.941608 2.13553 2.10347 2.13553.64282 0 1.2182-.29381 1.60406-.75575l3.00324 1.76114c-.36452.754-.57025 1.6016-.57025 2.4978 0 1.6294.67696 3.0967 1.75943 4.1324l-2.94349 3.3307c-.21939-.1369-.46611-.2366-.73416-.2851-1.14393-.2063-2.23579.5685-2.43896 1.7299-.20318 1.1614.56001 2.2699 1.70394 2.4761 1.14393.2063 2.23579-.5685 2.43896-1.7299.10842-.6188-.05976-1.2212-.41147-1.6814l2.96568-3.3558c.91685.6665 2.03855 1.06 3.25165 1.06.9954 0 1.9285-.2653 2.7378-.7281l2.7403 4.428c-.4209.3909-.6855.9499-.6855 1.5748 0 1.1795.9416 2.1355 2.1034 2.1355 1.1619 0 2.1035-.956 2.1035-2.1355 0-1.1796-.9416-2.1356-2.1035-2.1356-.2774 0-.5412.0555-.7828.1543l-2.7471-4.4375c1.1396-.8736 1.9395-2.1797 2.1623-3.6782l3.5403.3458c.0776 1.1076.9851 1.9821 2.0957 1.9821 1.1107 0 2.1035-.956 2.1035-2.1355 0-1.1796-.9416-2.1356-2.1035-2.1356z" fill="#c1bfbf"/></svg>

<svg width="25" height="26" viewBox="0 0 25 26" fill="none" xmlns="http://www.w3.org/2000/svg">
    <path d="M22.8974 11.8243C21.9421 11.8243 21.1371 12.4709 20.8801 13.3558L17.3212 13.0082C17.3212 12.977 17.3237 12.945 17.3237 12.9138C17.3237 11.1119 16.4956 9.50765 15.2066 8.46762L17.9213 4.12287C18.1595 4.21821 18.4181 4.27194 18.6905 4.27194C19.8523 4.27194 20.7939 3.31598 20.7939 2.1364C20.7939 0.956832 19.8515 0 18.6896 0C17.5277 0 16.5861 0.955965 16.5861 2.13554C16.5861 2.76563 16.8568 3.32984 17.2836 3.72072L14.5894 8.0334C13.7536 7.52812 12.777 7.23691 11.733 7.23691C9.79597 7.23691 8.08947 8.23707 7.08639 9.75552L4.08315 7.9944C4.16254 7.76906 4.20864 7.52725 4.20864 7.27418C4.20864 6.0946 3.26703 5.13864 2.10517 5.13864C0.943316 5.13864 0 6.0946 0 7.27418C0 8.45375 0.941608 9.40971 2.10347 9.40971C2.74629 9.40971 3.32167 9.1159 3.70753 8.65396L6.71077 10.4151C6.34625 11.1691 6.14052 12.0167 6.14052 12.9129C6.14052 14.5423 6.81748 16.0096 7.89995 17.0453L4.95646 20.376C4.73707 20.2391 4.49035 20.1394 4.2223 20.0909C3.07837 19.8846 1.98651 20.6594 1.78334 21.8208C1.58016 22.9822 2.34335 24.0907 3.48728 24.2969C4.63121 24.5032 5.72307 23.7284 5.92624 22.567C6.03466 21.9482 5.86648 21.3458 5.51477 20.8856L8.48045 17.5298C9.3973 18.1963 10.519 18.5898 11.7321 18.5898C12.7275 18.5898 13.6606 18.3245 14.4699 17.8617L17.2102 22.2897C16.7893 22.6806 16.5247 23.2396 16.5247 23.8645C16.5247 25.044 17.4663 26 18.6281 26C19.79 26 20.7316 25.044 20.7316 23.8645C20.7316 22.6849 19.79 21.7289 18.6281 21.7289C18.3507 21.7289 18.0869 21.7844 17.8453 21.8832L15.0982 17.4457C16.2378 16.5721 17.0377 15.266 17.2605 13.7675L20.8008 14.1133C20.8784 15.2209 21.7859 16.0954 22.8965 16.0954C24.0072 16.0954 25 15.1394 25 13.9599C25 12.7803 24.0584 11.8243 22.8965 11.8243H22.8974Z" fill="#C1BFBF"/>
</svg>
